X:494
T:Morpeth Rant
C:English Traditional
S:Colin Hume's website,  colinhume.com  - chords can also be printed below the stave.
Q:1/2=110
M:4/4
L:1/4
K:D
P:A
|:A | "D"dA/G/ F/D/F/A/ | "G"B/G/B/d/ "A7"c/A/c/e/ | "D"ff/d/ "G"g/f/e/d/ | "A7"ce eA |\
"D"dA/G/ F/D/F/A/ | "G"B/G/B/d/ "A7"c/A/c/e/ | "D"ff/d/ "G"g/f/e/d/ | "D"Ad d :|
P:B
|:A | "D"d/f/a/f/ d/f/a/f/ | "Em"g/f/e/f/ ge/f/ | "A7"g/f/e/d/ c/d/e/g/ | "D"f/e/f/g/ f3/f/ |\
"Bm"d/f/a/f/ d/f/a/f/ | "Em"g/f/e/f/ ge/f/ | "A7"g/f/e/d/ c/e/a/g/ | "D"fd d :|

